icons/folder-dump.svg

<svg xmlns="http://www.w3.org/2000/svg" viewBox="0 0 32 32"><path fill="#757575" d="m13.844 7.536-1.288-1.072A2 2 0 0 0 11.276 6H4a2 2 0 0 0-2 2v16a2 2 0 0 0 2 2h24a2 2 0 0 0 2-2V10a2 2 0 0 0-2-2H15.124a2 2 0 0 1-1.28-.464Z"/><path fill="#bdbdbd" fill-rule="evenodd" d="M26 12H15a1 1 0 0 0-1 1v14a1 1 0 0 0 1 1h14a1 1 0 0 0 1-1V16Zm-10 2h8v4h-8Zm6 12a3 3 0 1 1 3-3 2.996 2.996 0 0 1-3 3Z"/></svg>

<svg xmlns="http://www.w3.org/2000/svg" viewBox="0 0 32 32">
  <path d="M13.84376,7.53645l-1.28749-1.0729A2,2,0,0,0,11.27591,6H4A2,2,0,0,0,2,8V24a2,2,0,0,0,2,2H28a2,2,0,0,0,2-2V10a2,2,0,0,0-2-2H15.12412A2,2,0,0,1,13.84376,7.53645Z" style="fill: #757575"/>
  <path d="M26,12H15a1,1,0,0,0-1,1V27a1,1,0,0,0,1,1H29a1,1,0,0,0,1-1V16ZM16,14h8v4H16Zm6,12a3,3,0,1,1,3-3A2.996,2.996,0,0,1,22,26Z" style="fill: #bdbdbd;fill-rule: evenodd"/>
</svg>
